!!!!SEGMENT: pl-wtm--iii-40-030_bauerfeind-wladyslaw--loin-de-toi.krn
!!!cenid: 19xx:28
!!!COM: Bauerfeind, Władysław
!!!COM-rismID: pe50046019
!!!CDT: 1880-1939
!!!CNT: Polish
!!!OTL: Loin de toi
!!!PDT:
!!!AGN: Secular
!!!YEC: Copyright 2022 Narodowy Instytut Fryderyka Chopina (https://polishscores.org)
!!!YEM: License CC-BY-4.0 (https://creativecommons.org/licenses/by/4.0)
!!!SMS-siglum: PL-Wtm
!!!SMS-shelfmark: III.40.030
!!!SMS-variant:
!!!SMS-altvar:
!!!SMS-shelfwork: W
!!!NIFC-rismSourceID: 1001140871
!!!NIFC-rismChildID: 1001140871
!!!NIFC-islandoraID: pl-wtm:6491
!!!URL-pdf-islandora: https://repozytorium.nifc.pl/islandora/object/pl-wtm%3A6491/datastream/PDF/view
!!!URL-scan: https://polish.musicsources.pl/pl/lokalizacje/galeria/druki-muzyczne/15946/2 @EN{Scan on Polish Music Sources Website} @PL{Skany w portalu Dziedzictwo Muzyki Polskiej w otwartym dostępie}
!!!IIIF:
!!!ONB-nifc:
!!!AIN: 2 forte
!!!key: D
**kern	**kern	**dynam
*part2	*part1	*part1
*staff2	*staff1	*
*I"Piano	*I"Piano	*
*I'P-no	*I'P-no	*
*ICklav	*ICklav	*
*Iforte	*Iforte	*
*clefF4	*clefG2	*
*k[f#c#]	*k[f#c#]	*
*D:	*D:	*
*M4/4	*M4/4	*
*met(c)	*met(c)	*
*>[A,A1,A,A2,B]	*	*
=1	=1	=1
*>A	*	*
!	!LO:TX:a:t=Con bravura.	!
((8qDDD/ 8qDD	.	.
2D\)) 2A 2d	2f#\ 2a 2dd 2ff#	ff
4D\ 4A 4d	4f#/ 4a 4dd	.
4D\ 4A 4d	4f#/ 4a	.
=2	=2	=2
((8qDDD/ 8qDD	.	.
2.D\)) 2.G#X	2.d/ 2.fn 2.g#X 2.cc#	.
4D\ 4G#	4d/ 4f 4g# 4b	.
=3	=3	=3
4DD:/ 4AA: 4F#:	4A/ 4d 4f#X 4a	.
4D\ 4A 4d	4f#\ 4a 4ff#	.
4BB:\ 4F#: 4d#X:	4g\ 4b 4gg	.
4F#\ 4A 4B 4d#	4f#\ 4a 4ff#	.
=4	=4	=4
1EE 1BB 1G	1B 1e 1g 1b	.
=5	=5	=5
2GG/ 2E 2G	2e/ 2b 2ee	.
4GG#X/ 4Fn 4G#X	4d/ 4fn 4g#X 4dd	.
4GG#/ 4F 4G#	4d/ 4f 4g# 4b	.
=6	=6	=6
2AA\ 2F# 2A	2d/ 2f# 2dd	.
4AA\ 4F# 4A	4d/ 4f# 4a	.
4AA\ 4F# 4A	4d/ 4f#	>
=7	=7	=7
.	16qqe/LL	.
.	16qqf#/JJ	.
4AA/ 4G	((4c#/ 4e	.
4AA/ 4F#	4B#X/ 4d#X	.
4AA/ 4G	4c#/ 4e	.
4AA/ 4D#X	4B#/ 4f#	.
=8	=8	=8
2AA/ 2E	2c#/)) 2g	.
4r	4r	.
4AA/	4A/	]]
!!LO:LB:g=original
=9||	=9||	=9||
*M3/4	*M3/4	*
!	!LO:TX:a:t=Tempo di valse.	!
(4DD/ 4AA	(4F#/ 4A	f <
4D\	4F#/ 4A 4d	.
4F#\	4A/ 4d 4f#	.
=10	=10	=10
*	*^	*
4A\	4d/ 4f# 4a	4ryy	.
2G#X;\)	4.cc#;/)	2d\ 2fn	[ >
.	8b/	.	.
=11	=11	=11	=11
4DD/ 4D	[<2.F#/ [2.f#	4r	.
2r	.	4A\ 4d	]
.	.	4A\ 4d	.
*	*v	*v	*
=12	=12	=12
4AAA/ 4AA	4F#/] 4f#]	.
2r	(>4E#X/ 4A 4d 4e#X	.
.	4F#/ 4A 4d 4f#	.
=13	=13	=13
*	*^	*
2.DD/ 2.D	2.B/ 2.b	4r	<
.	.	4d\ 4f#	.
.	.	4d\ 4f#	.
=14	=14	=14	=14
2.DD#X/ 2.D#X	2A/) 2a	4r	.
.	.	4d#X\ 4f#	[ >
.	(>4A/ 4d# 4f#	4ryy	.
=15	=15	=15	=15
2.EE/ 2.E	[<2.G/ [2.g	4r	.
.	.	4B\ 4e	.
.	.	4B\ 4e	.
=16	=16	=16	=16
2.BB/	2.G/]) 2.g]	4r	] <
.	.	4B\ 4e	.
.	.	4B\ 4e	.
*	*v	*v	*
=17	=17	=17
(4EE/ 4BB	(>4G/ 4B	.
4E\	4G/ 4B 4e	.
4G\	4B/ 4e 4g	.
=18	=18	=18
*	*^	*
4B\	4e/ 4g 4b	4ryy	.
4.f#;\)	4.ff#;/)	2g\ 2b	[
8e\	8ee/	.	.
*	*v	*v	*
!!LO:LB:g=original
=19	=19	=19
4AAA/ 4AA	(>2.g/ 2.dd	>
4G\ 4A 4c#	.	.
4G\ 4A 4c#	.	.
=20	=20	=20
4E\	2g/) 2cc#	.
4G\ 4A 4c#	.	.
4r	(8g/L 8cc#	] <
.	8g/J 8cc#	.
=21	=21	=21
4AAA/ 4AA	2cc#\ 2ee	.
4G\ 4A 4c#	.	.
4G\ 4A 4c#	[4g/ [4b	[[
=22	=22	=22
4E\	8g/L]) 8b]	>
.	8g/J 8b	.
4G\ 4A 4c#	(4.b\ 4.dd	.
4r	.	.
.	8a\ 8cc#	]]
=23	=23	=23
*	*^	*
2.DD:/ 2.AA: 2.F#:	[<2.A/ [2.a	4r	.
.	.	4d\ 4f#	.
.	.	4d\ 4f#	.
=24	=24	=24	=24
2.AA/	2.A/]) 2.a]	4r	.
.	.	4d\ 4f#	.
.	.	4d\ 4f#	.
*	*v	*v	*
=25	=25	=25
(4DD/ 4AA	(>4F#/ 4A	<
4D\	4F#/ 4A 4d	.
4F#\	4A/ 4d 4f#	[[
=26	=26	=26
*	*^	*
4A\	4d/ 4f# 4a	4r	<
2G#X;\)	4.cc#;/)	2d\ 2fn	[ >
.	8b/	.	.
=27	=27	=27	=27
4DD/ 4D	[<2.F#/ [2.f#	4r	.
2r	.	4A\ 4d	]
.	.	4A\ 4d	.
*	*v	*v	*
=28	=28	=28
4AAA/ 4AA	4F#/] 4f#]	.
2r	4E#X/ 4A 4d 4e#X	<
.	4F#/ 4A 4d 4f#	.
!!LO:LB:g=original
=29	=29	=29
*	*^	*
2.DD#X/ 2.D#X	(2.B/ 2.b	4r	.
.	.	4d#X\ 4f#	.
.	.	4d#\ 4f#	.
=30	=30	=30	=30
2.BBB/ 2.BB	2A/) 2a	4r	.
.	.	4d#X\ 4f#	[ >
.	(>4A/ 4d# 4f#	4ryy	.
=31	=31	=31	=31
2.EE/ 2.E	[<2.G/ [2.g	4r	.
.	.	4B\ 4e	.
.	.	4B\ 4e	.
=32	=32	=32	=32
2.BBB/	2.G/]) 2.g]	4r	.
.	.	4B\ 4e	]
.	.	4B\ 4e	.
=33	=33	=33	=33
4GGG/ 4GG	(4g\ 4b 4ff#	4ryy	ff
2G;\ 2B 2e	4.ee;/)	2g\ 2b	.
.	(8dd/	.	.
*	*v	*v	*
=34	=34	=34
.	(16qqdd/LL	.
.	16qqee/JJ	.
4GGG/ 4GG	4dd\)	.
2G\ 2B-X 2d	4b-X\	>
.	4g/	.
=35	=35	=35
*	*^	*
4AAA/ 4AA	2.dd/	4r	.
4F#\ 4A	.	4d\ 4f#	.
4F#\ 4A	.	4d\ 4f#	.
=36	=36	=36	=36
!	!LO:N:vis=2.	!	!
4D\	2a/	4r	.
4F#\ 4A	.	4d\ 4f#	.
4F#\ 4A	4f#/)	4d\ 4f#	.
=37	=37	=37	=37
2.EE/ 2.BB	(2.f#/	4r	.
.	.	4G#X\ 4d	.
.	.	4G#\ 4d	.
=38	=38	=38	=38
2.AAA/ 2.AA	2.e/	4r	.
.	.	4Gn\ 4c#	.
.	.	4G\ 4c#	.
!!LO:LB:g=original
=39	=39	=39	=39
4DD/	2.d/)	4r	.
4AA/	.	4F#\ 4A	.
4FF#/	.	4F#\ 4A	]
*	*v	*v	*
=40	=40	=40
4DD/	4r	.
.	8qb/	.
!	!LO:N:vis=4.	!
2r	4f#/ (>4a	.
.	4d/ 4f#	.
=41||	=41||	=41||
.	(8qd/ 8qf#	.
4DD/ 4D	[2.f#/) [2.a	.
4F#\ 4A 4d	.	.
4F#\ 4A 4d	.	.
=42	=42	=42
4AAA/ 4AA	4f#/] 4a]	.
4F#\ 4A 4d	4.f#/ (>4.b)	.
4r	.	.
.	8d/ 8f#	.
=43	=43	=43
.	(8qd/ 8qf#	.
4DD/ 4D	[2.f#/) [2.b	.
4F#\ 4A 4d	.	.
4F#\ 4A 4d	.	.
=44	=44	=44
4AAA/ 4AA	4f#/] 4b]	.
4F#\ 4A 4d	4f#/ 4a	.
4r	8f#/L 8a	<
.	8f#/J 8a)	.
=45	=45	=45
(4DD/ 4D	4d/ (>4e#X	.
4F#\	4d/ 4f#	.
4A\	4d/ 4f# 4a	[
=46	=46	=46
4c#\	4f#/ 4a 4cc#	.
4e;\)	4f#/ 4a 4ee;)	.
4r	8r	.
.	8dd\	>
=47	=47	=47
.	(>8qdd/	.
4EE/ 4E	[2.c#/) [2.g	.
4E\ 4G 4A	.	.
4E\ 4G 4A	.	]
=48	=48	=48
4AAA/ 4AA	4c#/] 4g]	.
.	(>&(>8qa/	.
4E\ 4G 4A	4.c#/ 4.g&)	.
4r	.	.
.	8e/	.
!!LO:LB:g=original
=49	=49	=49
.	(8qe/	<
4EE/ 4E	[2.c#/) [2.g	.
4E\ 4G 4A	.	.
4E\ 4G 4A	.	.
=50	=50	=50
4AAA/ 4AA	4c#/] 4g])	.
.	&(>(8qcc#/	.
4E\ 4G 4A	4.g/) 4.b	.
4r	.	.
.	8c#/ 8g	.
=51	=51	=51
.	(8qc#/ 8qg	.
4EE/ 4E	[2.g/) [2.b	[[
4E\ 4G 4A	.	.
4E\ 4G 4A	.	.
=52	=52	=52
4AAA/ 4AA	4g/]) 4b]&)	.
.	(8qcc#/	.
4E\ 4G 4A	4g/) 4b	.
4r	8c#/L 8g	<
.	8c#/J 8g	.
=53	=53	=53
(4AAA/ 4AA	(>4c#/ 4d#X	.
4E\	4c#/ 4e	.
4G\	4c#/ 4e 4g	.
=54	=54	=54
4B\	4c#/ 4e 4g 4b	.
4d;\)	4e;/) 4g 4dd	[
4r	8r	.
.	8cc#\	>
=55	=55	=55
.	(8qcc#/	.
4DD/ 4D	[2.d/) [2.f#	]]
4F#\ 4A	.	.
4F#\ 4A	.	.
=56	=56	=56
4AAA/ 4AA	4d/] 4f#]	.
.	(8qb/	.
4F#\ 4A 4d	(>4.f#/) 4.a	.
4r	.	.
.	8d/ 8f#	.
=57	=57	=57
.	(8qd/ 8qf#	.
4DD/ 4D	[2.f#/) [2.a	.
4F#\ 4A 4d	.	.
4F#\ 4A 4d	.	.
=58	=58	=58
4AAA/ 4AA	4f#/]) 4a]	.
4F#\ 4A 4d	(>4.f#/ 4.b	.
4r	.	.
.	8d/ 8f#	.
!!LO:LB:g=original
=59	=59	=59
.	(8qd/ 8qf#	.
4DD/ 4D	[2.f#/) [2.b	.
4F#\ 4A 4d	.	<
4F#\ 4A 4d	.	.
=60	=60	=60
4AAA/ 4AA	4f#/]) 4b]	.
4F#\ 4A 4d	4f#/ 4b	.
4r	8f#/L 8a	.
.	8f#/J 8a	.
=61	=61	=61
4DD/ (4D	(4d/ 4e#X	.
4F#\	4d/ 4f#	.
4A\)	4d/ 4f# 4a	.
=62	=62	=62
4FF#/ 4F#	4en/ 4a#X 4cc#	.
4F#;\ 4A#X 4c# 4e	4.a#;\) 4.cc# 4.gg	[
4r	.	.
.	8ff#\	f
=63	=63	=63
4BBB/ 4BB	[2.f#/ [>2.b [2.ee	.
4F#\ 4B 4d	.	.
4F#\ 4B 4d	.	.
=64	=64	=64
4DD/ 4D	4f#/] 4b] 4ee]	.
4F#\ 4B 4d	(4f#/ 4b 4dd	.
4F#\ 4B 4d	4f#/ 4b 4cc#	.
=65	=65	=65
4GG/ 4G	[2.g\ [2.b [2.ee	.
4G\ 4B 4e	.	.
4G\ 4B 4e	.	.
=66	=66	=66
4GG#X/ 4G#X	4g\]) 4b] 4ee]	.
4G#\ 4B 4d	(4.g#X\ 4.b 4.dd	.
4G#\ 4B 4d	.	.
.	8g#/ 8b	.
=67	=67	=67
4AA\ 4A	[2.f#/ [2.a	.
4F#\ 4A 4d	.	.
4F#\ 4A 4d	.	.
=68	=68	=68
4AA\ 4A	4f#/]) 4a]	.
4F#\ 4A 4d	4.e#X/ 4.g#X	.
4F#\ 4A 4d	.	.
.	8f#/ 8a	.
!!LO:PB:g=original
=69	=69	=69
.	(>8qcc#/	.
4EE/ 4E	(>4d/) 4e 4g#X 4b	.
4E\ 4G#X 4B	4d/ 4e 4g# 4a#X	.
4E\ 4G# 4B	4d/ 4e 4g# 4b	.
=70	=70	=70
4AAA/ 4AA	2c#/ 2gn 2cc#	>
4E\ 4G 4A	.	.
4E\ 4G 4A	4c#/ 4g 4a	.
=71	=71	=71
4DD:/ 4AA: 4F#:	[2.d/ [2.f# [2.a [2.dd	.
4A\	.	.
4F#\	.	.
=72	=72	=72
4D\	4d/]) 4f#] 4a] 4dd]	.
2r	4dd\	.
.	4dd\	]]
=73!|:	=73!|:	=73!|:
*k[fncnb-e-]	*k[fncnb-e-]	*
!	!LO:TX:i:a:t=dolce e con sentimento	!
4BBB-/ 4BB-	(2dd\	.
4F\ 4B- 4d	.	.
4F\ 4B- 4d	[4b-\	.
=74	=74	=74
4BB-/	4b-\]	.
4En\ 4G 4B- 4d-X	4en/	.
4E\ 4G 4B- 4d-	8e/L	.
.	8e/J	.
=75	=75	=75
4BB-/	2.g/	.
4En\ 4G 4B- 4d-X	.	.
4E\ 4G 4B- 4d-	.	.
=76	=76	=76
4BB-/	2.f/)	.
4F\ 4B- 4d	.	.
4F\ 4B- 4d	.	.
=77	=77	=77
4BB-/	(2f/	<
4F\ 4B- 4d	.	.
4F\ 4B- 4d	4dd\	.
=78	=78	=78
.	(8qqee-/L	.
.	8qqff/J	.
4BBn/	2ee-\)	.
4F\ 4A-X 4Bn 4d	.	.
4F\ 4A- 4B 4d	4dd\	[[
!!LO:LB:g=original
=79	=79	=79
4C/	[2.g/	>
4G\ 4c 4e-	.	.
4G\ 4c 4e-	.	.
=80	=80	=80
4E-\	2g/])	.
4G\ 4c 4e-	.	.
4G\ 4c 4e-	4g/	]
=81	=81	=81
4C/	(2ee-\	.
4G\ 4c 4e-	.	.
4G\ 4c 4e-	[4cc\	.
=82	=82	=82
4E-\	4cc\]	.
4G\ 4c 4e-	4f#X/	.
4G\ 4c 4e-	8f#/L	.
.	8f#/J	.
=83	=83	=83
4C/	2.a/	.
4G\ 4c 4e-	.	.
4G\ 4c 4e-	.	.
=84	=84	=84
4E-\	2.g/)	.
4G\ 4c 4e-	.	.
4G\ 4c 4e-	.	.
=85	=85	=85
4FF/	(2f/	<
4F\ 4A 4c 4e-	.	.
4F\ 4A 4c 4e-	[4f\ [4a [4cc [4ff	.
=86	=86	=86
4FF/	4f\] 4a] 4cc] 4ff]	.
4F\ 4A 4c 4e-	[4a\ 4ee- [4aa	.
4F\ 4A 4c 4e-	8a\L] 8cc 8aa]	.
.	8g\J 8cc#X 8gg	[[
=87	=87	=87
4BB-/	[2.f\ [2.dd [2.ff	>
4F\ 4B- 4d	.	.
4F\ 4B- 4d	.	.
=88	=88	=88
4D\	2.f\]) 2.dd] 2.ff]	]]
4F\ 4B- 4d	.	.
4F\ 4B- 4d	.	.
!!LO:LB:g=original
=89	=89	=89
4BB-/	2dd\	.
4F\ 4B- 4d	.	.
4F\ 4B- 4d	[4b-\	.
=90	=90	=90
4BB-/	4b-\]	.
4En\ 4G 4B- 4d-X	4en/	.
4E\ 4G 4B- 4d-	8e/L	.
.	8e/J	.
=91	=91	=91
4BB-/	2.g/	.
4En\ 4G 4B- 4d-X	.	.
4E\ 4G 4B- 4d-	.	.
=92	=92	=92
4BBB-/	2.f/	.
4F\ 4B- 4dn	.	.
4F\ 4B- 4d	.	.
=93	=93	=93
4BB-/	(2f/	<
4F\ 4B- 4d	.	.
4F\ 4B- 4d	4dd\	.
=94	=94	=94
.	(8qqee-/L	.
.	8qqff/J	.
4BBn/	2ee-\)	.
4F\ 4A-X 4Bn 4d	.	.
4F\ 4A- 4B 4d	4dd\	.
=95	=95	=95
4C/	[2.g\ [2.cc [2.ee- [2.gg	[[
4G\ 4c 4e-	.	.
4G\ 4c 4e-	.	.
=96	=96	=96
4E-\	2.g\]) 2.cc] 2.ee-] 2.gg]	.
4G\ 4c 4e-	.	.
4G\ 4c 4e-	.	.
=97	=97	=97
4EEn/ 4En	4b-\ 4dd-X 4een 4bb-	f
4G\ 4B- 4d-X	4r	.
4G\ 4B- 4d-	(4b-\ 4dd- 4ee 4bb-	.
=98	=98	=98
4En\	2b-\ 2dd-X 2een 2aa	>
4G\ 4B- 4d-X	.	.
4G\ 4B- 4d-	4b-\ 4dd- 4ee 4gg	.
!!LO:LB:g=original
=99	=99	=99
4FF/ 4F	2.g\ 2.b- 2.ddn 2.gg	.
4F\ 4B- 4dn	.	.
4F\ 4B- 4d	.	.
=100	=100	=100
4FF,/ 4F	2.f\) 2.b- 2.dd 2.ff	]]
4F\ 4B- 4d	.	.
4F\ 4B- 4d	.	.
=101	=101	=101
*>A1	*	*
4CC/ 4C	4B-/ 4en 4g	>
4C\ 4En 4G	4r	.
4C\ 4E 4G	4B-/ 4e 4g	.
=102	=102	=102
4B-\	4c/ 4en 4g	.
4A\	4c/ 4e 4a	.
4G\	(>4c/ 4e 4b-	.
=103	=103	=103
4FF:\ 4C: 4A:	[2.e-X/ [>2.a [2.cc	]]
4F\	.	.
4A\	.	.
=104	=104	=104
4c\	2e-/] 2a] 2cc]	<
4A\	.	.
4F\	4e-/) 4a 4cc#X	[[
=105:|!	=105:|!	=105:|!
*>A2	*	*
4EE-/ 4E-	(4e-/ 4g	>
4E-\ 4G 4c	4a/	.
4E-\ 4G 4c	4b-\	.
=106	=106	=106
4FF:\ 4C: 4A:	2e-/ 2a 2cc	.
2F\ 2A 2c	.	.
.	4e-/ 4a 4dd	.
=107	=107	=107
(4BB-\ 4B-	[2.d/ [2.f [2.b-	]]
4GG/ 4G	.	.
4FF/ 4F	.	.
=108	=108	=108
4BBB-/) 4BB-	4d/]) 4f] 4b-]	.
2r	2r	.
!!LO:LB:g=original
=109||	=109||	=109||
*>B	*	*
*k[bnenf#c#]	*k[bnenf#c#]	*
!	!LO:TX:a:t=Andante.	!LO:DY:rj
4.AAA/ 4.AA	4.c#/ 4.g 4.a	f <
8B\	8b\	.
4c#\	4cc#\	.
*clefG2	*	*
=110	=110	=110
4e/	4ee\	.
4g/	4gg\	.
4b\	4bb\	.
=111	=111	=111
4ee\	4eee\	.
4cc#\	4ccc#\	.
4b\	4bb\	[[
=112	=112	=112
4g/	4gg\	.
4e/	4ee\	.
4c#/	4cc#\	.
*clefF4	*	*
=113	=113	=113
2.AA:\ 2.E: 2.d:	2g/ 2b	.
.	4ee\	.
=114	=114	=114
2.AA:\ 2.E: 2.c#:	2g/ 2b-X	.
.	4ee\	.
=115	=115	=115
(8qAAA/ 8qAA	.	.
[2.AA/) [2.E	[2.A/ [2.c# [2.g [2.a	>
=116	=116	=116
4AA/] 4E]	4A/] 4c#] 4g] 4a]	.
!	!LO:TX:i:a:t=con espressione	!
2r	2r	]
=117	=117	=117
(4DD/ 4AA	(>4F#;/ 4A	f <
4D\	4F#/ 4A 4d	.
4F#\	4A/ 4d 4f#	.
=118	=118	=118
*	*^	*
4A\	4d/ 4f# 4a	4ryy	.
2G#X;\)	4.cc#;/)	2d\ 2fn	[ >
.	8b/	.	.
!!LO:LB:g=original
=119	=119	=119	=119
4DD/ 4D	[<2.F#/ [2.f#	4r	]
2r	.	4A\ 4d	.
.	.	4A\ 4d	.
*	*v	*v	*
=120	=120	=120
4AAA/ 4AA	4F#/] 4f#]	.
2r	(>4E#X/ 4A 4d 4e#X	.
.	4F#/ 4A 4d 4f#	.
=121	=121	=121
*	*^	*
2.DD/ 2.D	2.B/ 2.b	4r	<
.	.	4d\ 4f#	.
.	.	4d\ 4f#	.
=122	=122	=122	=122
2.DD#X/ 2.D#X	2A/) 2a	4r	.
.	.	4d#X\ 4f#	[
.	(>4A/ 4d# 4f#	4ryy	.
=123	=123	=123	=123
2.EE/ 2.E	[<2.G/ [2.g	4r	>
.	.	4B\ 4e	.
.	.	4B\ 4e	.
=124	=124	=124	=124
2.BB/	2G/]) 2g]	4r	.
.	.	4B\ 4e	.
.	4ryy	4B\ 4e	.
*	*v	*v	*
=125	=125	=125
(4EE/ 4BB	(>4G/ 4B	] <
4E\	4G/ 4B 4e	.
4G\	4B/ 4e 4g	.
=126	=126	=126
*	*^	*
4B\	4e/ 4g 4b	4r	.
4f#;\)	4.ff#;/)	2g\ 2b	[
4e\	.	.	.
.	8ee/	.	.
*	*v	*v	*
=127	=127	=127
4AAA/ 4AA	(>2.g/ 2.dd	>
4G\ 4A 4c#	.	.
4G\ 4A 4c#	.	.
=128	=128	=128
4G\	2g/) 2cc#	.
4G\ 4A 4c#	.	.
4r	(8g/L 8cc#	] <
.	8g/J 8cc#	.
!!LO:LB:g=original
=129	=129	=129
4AAA/ 4AA	2cc#\ 2ee	.
4G\ 4A 4c#	.	.
4G\ 4A 4c#	[4g/ [4b	[[
=130	=130	=130
4E\	8g/L]) 8b]	>
.	(8g/J 8b	.
4G\ 4A 4c#	4.b\ 4.dd	.
4r	.	.
.	8a\ 8cc#	]]
=131	=131	=131
*	*^	*
2.DD:/ 2.AA: 2.F#:	[<2.A/ [2.a	4r	.
.	.	4d\ 4f#	.
.	.	4d\ 4f#	.
=132	=132	=132	=132
2.AA/	2.A/]) 2.a]	4r	.
.	.	4d\ 4f#	.
.	.	4d\ 4f#	.
*	*v	*v	*
=133	=133	=133
(4DD/ 4AA	(>4F#/ 4A	<
4D\	4F#/ 4A 4d	.
4F#\	4A/ 4d 4f#	.
=134	=134	=134
*	*^	*
4A\	4d/ 4f# 4a	4r	.
2G#X;\)	4.cc#;/)	2d\ 2fn	[
.	8b/	.	>
=135	=135	=135	=135
4DD/ 4D	[<2.F#/ [2.f#	4r	.
2r	.	4A\ 4d	.
.	.	4A\ 4d	.
*	*v	*v	*
=136	=136	=136
4AAA/ 4AA	4F#/] 4f#]	]
2r	4E#X/ 4A 4d 4e#X	<
.	4F#/ 4A 4d 4f#	.
=137	=137	=137
*	*^	*
2.DD#X/ 2.D#X	(2.B/ 2.b	4r	.
.	.	4d#X\ 4f#	.
.	.	4d#\ 4f#	.
=138	=138	=138	=138
2.BBB/ 2.BB	2A/) 2a	4r	.
.	.	4d#X\ 4f#	[
.	(>4A/ 4d# 4f#	4ryy	>
!!LO:LB:g=original
=139	=139	=139	=139
2.EE/ 2.E	[2.G/ [2.g	4ryy	.
.	.	4B\ 4e	.
.	.	4B\ 4e	.
=140	=140	=140	=140
2.BB/	2.G/]) 2.g]	4r	] >
.	.	4B\ 4e	.
.	.	4B\ 4e	.
=141	=141	=141	=141
4GGG/ 4GG	(4g\ 4b 4ff#	4ryy	]
2G;\ 2B 2e	4.ee;/)	2g\ 2b	.
.	8dd/	.	.
*	*v	*v	*
=142	=142	=142
.	(8qqdd/L	>
.	8qqee/J	.
4GGG/ 4GG	(4dd\)	.
2G\ 2B-X 2d	4b-X\	.
.	4g/	.
=143	=143	=143
*	*^	*
4AAA/ 4AA	2.dd/	4r	.
4F#\ 4A	.	4d\ 4f#	.
4F#\ 4A	.	4d\ 4f#	.
=144	=144	=144	=144
*	*	*^	*
4D\	2.a/	4r	2ryy	.
4F#\ 4A	.	4d\ 4f#	.	.
4F#\ 4A	.	4d\ 4f#	4f#/)	]
*	*v	*v	*v	*
=145	=145	=145
4EEE/ 4EE	4G#X/ 4d 4e	<
2E\ 2G#X	4r	.
.	4d/ 4e 4g 4b	.
=146	=146	=146
4AAA/ 4AA	4c#/ 4gn 4a	.
2Gn\ 2A 2c# 2e	4r	.
.	4g\ 4a 4cc# 4ee 4aa	[
=147	=147	=147
(4DD:/ 4AA: 4F#:	2.dd\ 2.ff# 2.aa 2.ddd	<[
4F#\ 4A 4d	.	.
4A\ 4d 4f#	.	.
*clefG2	*	*
=148	=148	=148
*	*8va	*
!	!LO:TX:i:b:t=Fine.	!
4d/) 4f# 4a 4dd	4ddd\ 4fff# 4aaa 4dddd	.
*	*X8va	*
2r	2r	.
==	==	==
*-	*-	*-
!!!system-decoration: {(s1,s2)}
!!!RDF**kern: > = above
!!!RDF**kern: < = below
!!!ENC: Andrzej Gręziak
!!!END: 2023-09-08
!!!ENC: Leszek Kubiak
!!!END: 2023-09-29
